images/twitter.svg

<svg height="16" viewBox="0 0 16 16" width="16" xmlns="http://www.w3.org/2000/svg"><path d="m16 3.11519396c-.5886415.25704716-1.2213624.4306959-1.8852836.50881832.6776817-.39990501 1.1982419-1.03315146 1.4432824-1.78775504-.6343208.37037136-1.3368023.63923143-2.0845627.78413631-.5987217-.62804943-1.4518428-1.02039355-2.3960044-1.02039355-1.8128026 0-3.28264506 1.44675752-3.28264506 3.23128451 0 .25326717.02903978.49991937.08503988.73641263-2.72816506-.13474503-5.14688866-1.42124263-6.76593133-3.37626745-.28256043.47723855-.44448093 1.03228452-.44448093 1.62450216 0 1.12111689.57952134 2.1101667 1.46032206 2.68962553-.53808031-.01677391-1.04424094-.16215083-1.48680193-.40415612-.00037316.01346597-.00037316.02701091-.00037316.04063575 0 1.56559558 1.13152262 2.87154412 2.63320455 3.16859794-.27544043.07386948-.56544086.1133242-.86480216.1133242-.21151987 0-.41711946-.02031787-.61760015-.05796158.41776038 1.28374063 1.63000256 2.21797893 3.06648491 2.24396673-1.12344171.8667477-2.53880379 1.3833629-4.07680691 1.3833629-.26496099 0-.52624069-.0153569-.78304147-.0452046 1.45272254.9169133 3.17816512 1.4518774 5.03192832 1.4518774 6.03784978 0 9.33969518-4.9238273 9.33969518-9.19409119 0-.14010001-.0031999-.27941298-.0095194-.41809503.6412803-.45550365 1.1977614-1.02456843 1.6378427-1.67261982z" fill-rule="evenodd"/></svg>

<?xml version="1.0" encoding="UTF-8"?>
<svg width="16px" height="16px" viewBox="0 0 16 16" version="1.1" xmlns="http://www.w3.org/2000/svg" xmlns:xlink="http://www.w3.org/1999/xlink">
    <!-- Generator: sketchtool 44.1 (41455) - http://www.bohemiancoding.com/sketch -->
    <title>twitter</title>
    <desc>Created with sketchtool.</desc>
    <defs></defs>
    <g id="icons" stroke="none" stroke-width="1" fill="none" fill-rule="evenodd">
        <g id="v1" transform="translate(-144.000000, -16.000000)" fill="#000000">
            <g id="twitter" transform="translate(144.000000, 16.000000)">
                <path d="M16,3.11519396 C15.4113585,3.37224112 14.7786376,3.54588986 14.1147164,3.62401228 C14.7923981,3.22410727 15.3129583,2.59086082 15.5579988,1.83625724 C14.923678,2.2066286 14.2211965,2.47548867 13.4734361,2.62039355 C12.8747144,1.99234412 12.0215933,1.6 11.0774317,1.6 C9.2646291,1.6 7.79478664,3.04675752 7.79478664,4.83128451 C7.79478664,5.08455168 7.82382642,5.33120388 7.87982652,5.56769714 C5.15166146,5.43295211 2.73293786,4.14645451 1.11389519,2.19142969 C0.831334757,2.66866824 0.669414258,3.22371421 0.669414258,3.81593185 C0.669414258,4.93704874 1.2489356,5.92609855 2.12973632,6.50555738 C1.59165601,6.48878347 1.08549538,6.34340655 0.642934392,6.10140126 C0.642561225,6.11486723 0.642561225,6.12841217 0.642561225,6.14203701 C0.642561225,7.70763259 1.77408385,9.01358113 3.27576578,9.31063495 C3.00032535,9.38450443 2.71032492,9.42395915 2.41096362,9.42395915 C2.19944375,9.42395915 1.99384416,9.40364128 1.79336347,9.36599757 C2.21112385,10.6497382 3.42336603,11.5839765 4.85984838,11.6099643 C3.73640667,12.476712 2.32104459,12.9933272 0.783041467,12.9933272 C0.51808048,12.9933272 0.256800777,12.9779703 0,12.9481226 C1.45272254,13.8650359 3.17816512,14.4 5.03192832,14.4 C11.0697781,14.4 14.3716235,9.4761727 14.3716235,5.20590881 C14.3716235,5.0658088 14.3684236,4.92649583 14.3621041,4.78781378 C15.0033844,4.33231013 15.5598655,3.76324535 15.9999468,3.11519396 L16,3.11519396 Z" id="icon"></path>
            </g>
        </g>
    </g>
</svg>
